X: 16182
T: Green Mountain, The
R: reel
M: 4/4
K: Dmajor
|:AF ~F2 AFEF|DF ~F2 ABde|f2 df efdB|Adfd edBd|
AF ~F2 AFEF|DF ~F2 ABde|f2 df efdB|1 AFEF D2 dB:|2 AFEF D2 de||
|:fa ~a2 baaf|defd e2 de|~f2 df efdB|Adfd edBd|
fa ~a2 baaf|defd e2 de|~f2 df efdB|1 AFEF D2 de:|2 AFEF D2 dB||

